static/assets/img/icons/theme/media/mute.svg

<svg height="24" viewBox="0 0 24 24" width="24" xmlns="http://www.w3.org/2000/svg"><g fill="none" fill-rule="evenodd"><path d="m0 0h24v24h-24z" opacity="0"/><g fill="#000"><path d="m18 11v-2c0-.55228475.4477153-1 1-1s1 .44771525 1 1v2h2c.5522847 0 1 .4477153 1 1s-.4477153 1-1 1h-2v2c0 .5522847-.4477153 1-1 1s-1-.4477153-1-1v-2h-2c-.5522847 0-1-.4477153-1-1s.4477153-1 1-1z" opacity=".3" transform="matrix(.70710678 -.70710678 .70710678 .70710678 -2.92031 16.949747)"/><path d="m7 16-3.39223227-.6784465c-.93484839-.1869696-1.60776773-1.0077993-1.60776773-1.9611613v-2.7207844c0-.95336203.67291934-1.77419167 1.60776773-1.96116135l3.39223227-.67844645 3.2928932-3.29289322c.3905243-.39052429 1.0236893-.39052429 1.4142136 0 .1875364.18753638.2928932.44189029.2928932.70710678v13.17157284c0 .5522848-.4477153 1-1 1-.2652165 0-.5195704-.1053568-.7071068-.2928932z"/></g></g></svg>

<svg width="24px" height="24px" viewBox="0 0 24 24" version="1.1" xmlns="http://www.w3.org/2000/svg" xmlns:xlink="http://www.w3.org/1999/xlink">
    <title>Icon For Mute</title>
    <g stroke="none" stroke-width="1" fill="none" fill-rule="evenodd">
        <rect opacity="0" x="0" y="0" width="24" height="24"></rect>
        <path d="M18,11 L18,9 C18,8.44771525 18.4477153,8 19,8 C19.5522847,8 20,8.44771525 20,9 L20,11 L22,11 C22.5522847,11 23,11.4477153 23,12 C23,12.5522847 22.5522847,13 22,13 L20,13 L20,15 C20,15.5522847 19.5522847,16 19,16 C18.4477153,16 18,15.5522847 18,15 L18,13 L16,13 C15.4477153,13 15,12.5522847 15,12 C15,11.4477153 15.4477153,11 16,11 L18,11 Z" fill="#000000" opacity="0.3" transform="translate(19.000000, 12.000000) rotate(-45.000000) translate(-19.000000, -12.000000) "></path>
        <path d="M7,16 L3.60776773,15.3215535 C2.67291934,15.1345839 2,14.3137542 2,13.3603922 L2,10.6396078 C2,9.68624577 2.67291934,8.86541613 3.60776773,8.67844645 L7,8 L10.2928932,4.70710678 C10.6834175,4.31658249 11.3165825,4.31658249 11.7071068,4.70710678 C11.8946432,4.89464316 12,5.14899707 12,5.41421356 L12,18.5857864 C12,19.1380712 11.5522847,19.5857864 11,19.5857864 C10.7347835,19.5857864 10.4804296,19.4804296 10.2928932,19.2928932 L7,16 Z" fill="#000000"></path>
    </g>
</svg>
